images/Twitter.svg

<svg width="64" height="64" viewBox="0 0 64 64" fill="none" xmlns="http://www.w3.org/2000/svg">
<rect width="64" height="64" rx="20" fill="#1DA1F2"/>
<path d="M46.4725 24.9887C46.4725 25.3043 46.4725 25.62 46.4725 25.8905C46.4725 35.2238 39.2343 46 26.0406 46C21.9634 46 18.2068 44.8277 15 42.8438C15.5497 42.8889 16.1453 42.934 16.695 42.934C20.0393 42.934 23.1544 41.8068 25.6283 39.913C22.4673 39.868 19.8102 37.7939 18.9398 34.9984C19.3979 35.0886 19.8102 35.1337 20.3141 35.1337C20.9555 35.1337 21.5969 35.0435 22.1924 34.8631C18.894 34.2319 16.4202 31.3913 16.4202 27.9646C16.4202 27.9195 16.4202 27.9195 16.4202 27.8744C17.3822 28.4155 18.4817 28.7311 19.6728 28.7762C17.7487 27.5137 16.466 25.3494 16.466 22.8696C16.466 21.562 16.8325 20.3446 17.428 19.3076C20.9555 23.591 26.2696 26.3865 32.2251 26.7021C32.0877 26.2061 32.0419 25.62 32.0419 25.0789C32.0419 21.1562 35.2487 18 39.2343 18C41.2958 18 43.1741 18.8567 44.4568 20.2093C46.106 19.8937 47.6178 19.3076 49.038 18.496C48.4882 20.1643 47.3429 21.5169 45.877 22.4187C47.3429 22.2383 48.7173 21.8776 50 21.2915C49.0838 22.7343 47.8927 23.9968 46.4725 24.9887Z" fill="#F5F5F7"/>
</svg>

<svg width="64" height="64" fill="none" xmlns="http://www.w3.org/2000/svg"><rect width="64" height="64" rx="20" fill="#1DA1F2"/><path d="M46.472 24.989v.901c0 9.334-7.238 20.11-20.431 20.11-4.078 0-7.834-1.172-11.041-3.156.55.045 1.145.09 1.695.09 3.344 0 6.46-1.127 8.933-3.021-3.16-.045-5.818-2.12-6.688-4.915.458.09.87.136 1.374.136a6.52 6.52 0 001.878-.27c-3.298-.632-5.772-3.473-5.772-6.9v-.09a7.142 7.142 0 003.253.902c-1.924-1.262-3.207-3.427-3.207-5.906 0-1.308.366-2.525.962-3.562 3.527 4.283 8.842 7.079 14.797 7.394-.137-.496-.183-1.082-.183-1.623 0-3.923 3.207-7.079 7.192-7.079 2.062 0 3.94.857 5.223 2.21a14.739 14.739 0 004.581-1.714c-.55 1.668-1.695 3.02-3.161 3.923 1.466-.18 2.84-.541 4.123-1.128a13.004 13.004 0 01-3.528 3.698z" fill="#F5F5F7"/></svg>
